X:1
T:Title
%%score { ( 1 4 ) | ( 2 3 ) }
L:1/8
M:4/4
K:Db
V:1 treble nm="Grand Piano"
V:4 treble 
V:2 bass 
V:3 bass 
V:1
 z4 z2[Q:1/4=100] [DF][EG] | [FA]2 [Fd]2 [Ac]2 .[B,GB]2 | [DFA]2 F2 z2 AA | B2 A2 G2 F2 | %4
[M:3/4] [CE]6 |[M:1/4] [DF][EG] |[M:4/4] [FA]2 [Fd]2 [Ac]2 .[B,GB]2 | [DFA]2 [A,DF]2 z2 [FA][FA] | %8
 c2 B2 A2 =G2 |[M:3/4] [A,CA]6 |[M:1/4] [A,DF][FA] |[M:4/4] [Fd]2 [FA]4 [FA]2 | [Ac]2 B4 B2 | %13
 A2 A2 B2 c2 |[M:3/4] [Fd]2 e2 f2 |[M:1/4] [DFA]2 |[M:4/4] [Fd]2 [FA]4 [FA]2 | [Ac]2 B4 B2 | %18
 A2 A2 f2 e2 | d2- [Gd]2- [Gd-] [Fd]3 |[M:1/4] [A,DF][FA] |[M:4/4] [Fd]2 [FA]4 [FA]2 | %22
 [Ac]2 B4 B2 | A2 A2 B2 c2 |[M:3/4] [Fd]2 e2 f2 |[M:1/4] [DFA]2 |[M:4/4] [Fd]2 [FA]4 [FA]2 | %27
 [Ac]2 B4 B2 | A2 A2 f2 e2 | d2- [Gd]2- [Gd-] [Fd]3 |] %30
V:2
 z4 z2 [D,A,][D,A,] | [D,D]2 [D,A,]2 G,A, z C | D,2 [D,A,D]2 z2 [D,F,D][D,F,D] | %3
 [G,D]2 [F,A,D]2 [E,A,C]2 [D,A,D]2 |[M:3/4] [A,,A,]6 |[M:1/4] [D,A,][D,A,] | %6
[M:4/4] [D,D]2 [D,A,]2 G,A, z C | D,2 D,2 z2 [D,D][D,D] | [E,A,E]2 [E,DE]2 [E,CE]2 [E,B,D]2 | %9
[M:3/4] A,,6 |[M:1/4] z D |[M:4/4] [D,A,]2 [D,D]4 [D,D]2 | [G,D]2[K:treble] [G,DG]4 [G,DG]2 | %13
 [A,CG]2 [A,CG]2 [A,DG]2 [A,EG]2 |[M:3/4][K:bass] z2[K:treble] G2 A2 |[M:1/4][K:bass] D,2 | %16
[M:4/4] [D,A,]2 [D,D]4 [D,D]2 | [G,C]2[K:treble] [G,DG]4 [G,DG]2 | %18
 [A,DF]2 [A,DF]2 [A,DA]2 [A,CG]2 | z2 B,2- B, A,3 |[M:1/4] z D |[M:4/4] [D,A,]2 [D,D]4 [D,D]2 | %22
 [G,D]2[K:treble] [G,DG]4 [G,DG]2 | [A,CG]2 [A,CG]2 [A,DG]2 [A,EG]2 | %24
[M:3/4][K:bass] z2[K:treble] G2 A2 |[M:1/4][K:bass] D,2 |[M:4/4] [D,A,]2 [D,D]4 [D,D]2 | %27
 [G,C]2[K:treble] [G,DG]4 [G,DG]2 | [A,DF]2 [A,DF]2 [A,DA]2 [A,CG]2 | z2 B,2- B, A,3 |] %30
V:3
 x8 | z4 D,2 D,2 | x8 | x8 |[M:3/4] x6 |[M:1/4] x2 |[M:4/4] z4 D,2 D,2 | x8 | x8 |[M:3/4] x6 | %10
[M:1/4] D,2 |[M:4/4] x8 | x2[K:treble] x6 | x8 |[M:3/4][K:bass] [D,D]6[K:treble] | %15
[M:1/4][K:bass] x2 |[M:4/4] x8 | x2[K:treble] x6 | x8 | D,8 |[M:1/4] D,2 |[M:4/4] x8 | %22
 x2[K:treble] x6 | x8 |[M:3/4][K:bass] [D,D]6[K:treble] |[M:1/4][K:bass] x2 |[M:4/4] x8 | %27
 x2[K:treble] x6 | x8 | D,8 |] %30
V:4
 x8 | x8 | x8 | x8 |[M:3/4] x6 |[M:1/4] x2 |[M:4/4] x8 | x8 | x8 |[M:3/4] x6 |[M:1/4] x2 | %11
[M:4/4] x8 | x8 | x8 |[M:3/4] x6 |[M:1/4] x2 |[M:4/4] x8 | x8 | x8 | [DF]2 z2 z4 |[M:1/4] x2 | %21
[M:4/4] x8 | x8 | x8 |[M:3/4] x6 |[M:1/4] x2 |[M:4/4] x8 | x8 | x8 | [DF]2 z2 z4 |] %30

